X:35
T: Marianne
M:4/4
L:1/4
N:Singing square
Z:SG
K:F
"F"AAcc | FFA2 | "F"AGBA | "C"G4|
"C"c>ccc | ccc2 | "C7"c>BAG | "F"F4|
"F"A>AAF | Ac2c | "F7"cBdc | "Bb"B3d|
"Bb"dd"Bdim"ed | "F/C"c2A2 | "C7"zc/2B/2AG | "F"Fzc2||
"F"A2c2 | F2A2 | "C"AGB2- | B4|
"C"G2BB | "C7"EEG2 | "F"GFA2- | A4|
"F"AAcc | FFA2 | "C"AGB2- | B4|
"C7"GGBB | EEG2 | "F"GFF2- | F4|]
